X: 333
%
T: Lieut Col. Baillie of Leys.
C:From J.T. Surennes Collection
O:Scotland
B:Keith Norman MacDonald : "The Skye collection of the best reels & strathspeys extant" : 1887
Z:Ralph Palmer
R:Strathspey
M:C
L:1/8
K:D
F !segno!|| LD2 F>A d>AF>D | E<B,E>D C<EC<A, | D2 F>A d>AF>D | f>de>c dc/2B/2 A/2G/2F/2E/2 |
D2 F>A d>AF>D | E<B,E>D C<EC<A, | D2 F>A d>AF>A | B>g f/2e/2d/2c/2 {/c}Ld3 ||
e | f>dg>e f>dA>F | G<eF<d e>Ac>A | f>dg>e f>de>c | B>g f/2e/2d/2c/2 {/c}d3 e |
f<dg>e f>dA>F | G<eF<d e>Ac>A | D2 F>A d>AF>A | B>g f/2e/2d/2c/2 e/2d/2c/2B/2 A/2G/2F/2E/2 !segno!||
!fine! B>g f/2e/2d/2c/2 {/c}d3 |]


